lib/logo_tmp/nrk-logo-nrk-p3.svg

<svg width="68" height="16" viewBox="0 0 68 16" fill="none" xmlns="http://www.w3.org/2000/svg">
<path d="M54.0554 1.00583H49.7373C49.7373 1.00583 52.191 5.03381 52.2187 5.08451C52.3111 5.20099 52.3628 5.34463 52.3657 5.49332C52.3686 5.64202 52.3226 5.78755 52.2348 5.90756L49.7373 10.0014H54.056C54.056 10.0014 56.1387 6.59597 56.4234 6.12321C56.5585 5.9421 56.6306 5.72168 56.6285 5.49574C56.6264 5.26979 56.5504 5.05075 56.4119 4.87216C56.1048 4.34903 56.1041 4.34938 54.0554 1.00583Z" fill="white"/>
<path d="M49.1793 1.00588H45.3334V14.998H49.1793V1.00588Z" fill="white"/>
<path d="M67.581 3.32386C67.4358 3.07629 66.1505 1.00583 66.1505 1.00583H56.9074L58.9265 4.3925H63.795L61.7867 7.68469L64.0254 11.446L61.8648 14.997H65.8108C66.4452 13.9593 67.3937 12.354 67.5919 12.0251C67.7278 11.8433 67.8002 11.622 67.7982 11.395C67.7961 11.1681 67.7196 10.9481 67.5803 10.7688C67.3828 10.4317 66.326 8.75564 65.6946 7.72387C65.6946 7.72387 67.3937 4.90838 67.5919 4.57949C67.7277 4.39785 67.8002 4.17666 67.7982 3.94985C67.7963 3.72304 67.72 3.50313 67.581 3.32386Z" fill="white"/>
<path d="M58.6901 8.13934C58.0817 9.13293 57.0644 10.7981 56.8738 11.1227C56.7397 11.2954 56.6659 11.5073 56.6639 11.7259C56.6619 11.9446 56.7317 12.1578 56.8626 12.3329C57.0536 12.6496 58.0788 14.328 58.6901 15.3288C59.3011 14.329 60.3267 12.6506 60.5173 12.3329C60.6482 12.1578 60.718 11.9446 60.716 11.726C60.7141 11.5074 60.6404 11.2955 60.5064 11.1227C60.3158 10.7981 59.2982 9.13293 58.6901 8.13934Z" fill="white"/>
<path d="M6.10352e-05 15V1.00132H4.59345V15H6.10352e-05ZM10.8428 3.22929L13.4845 15H8.45743L5.30313 1.00132H8.1226C8.76913 0.992932 9.39647 1.22084 9.88698 1.64217C10.3783 2.04583 10.7158 2.6062 10.8428 3.22929ZM14.1745 15V1.00132H18.7679V15H14.1745ZM22.2373 6.32483C21.7423 6.32966 21.2553 6.20015 20.828 5.95018C20.4065 5.70652 20.0563 5.35634 19.8127 4.93475C19.5625 4.50744 19.4329 4.02027 19.4379 3.52509C19.4322 3.03292 19.5618 2.54866 19.8127 2.12522C20.0589 1.70821 20.4087 1.36183 20.828 1.11966C21.2554 0.86997 21.7423 0.740485 22.2373 0.744999C22.7293 0.7397 23.2134 0.869301 23.637 1.11966C24.0521 1.36395 24.3982 1.71004 24.6424 2.12522C24.893 2.54878 25.0226 3.03296 25.0173 3.52509C25.0219 4.02023 24.8924 4.50732 24.6424 4.93475C24.4007 5.35449 24.0543 5.70438 23.637 5.95018C23.2133 6.20102 22.7289 6.33066 22.2366 6.32483H22.2373ZM25.727 15V1.00132H30.3208V15H25.727ZM36.1361 8.65132C36.149 8.66491 36.2475 8.82591 36.4318 9.13437C36.616 9.44282 36.8558 9.83718 37.1513 10.3174C37.447 10.7974 37.7591 11.3067 38.0874 11.8454C38.4158 12.3841 38.7248 12.8935 39.0144 13.3735C39.3028 13.8534 39.6314 14.3956 40.0001 15H34.9532C34.6376 14.4874 34.3516 14.0241 34.0953 13.61C33.839 13.196 33.5666 12.7491 33.2779 12.2693C32.9885 11.79 32.7024 11.3233 32.4196 10.8694C32.1368 10.4155 31.8938 10.0179 31.6905 9.67662C31.4864 9.33508 31.345 9.10503 31.2663 8.98651C31.0714 8.6924 30.956 8.35273 30.9315 8.00069C30.9511 7.66281 31.0598 7.33619 31.2466 7.05401C31.3255 6.92257 31.4701 6.68922 31.6803 6.35404C31.8906 6.01886 32.1371 5.62128 32.4196 5.16123C32.7022 4.70118 32.9883 4.23126 33.2779 3.75149C33.5675 3.27172 33.8399 2.82149 34.0953 2.40087C34.352 1.98069 34.638 1.51407 34.9532 1.001H40.0001L36.0963 7.36946C35.9755 7.55854 35.9074 7.77645 35.8991 8.00069C35.9121 8.23609 35.9943 8.46242 36.1354 8.65132H36.1361Z" fill="white"/>
</svg>

<svg xmlns="http://www.w3.org/2000/svg" viewBox="0 0 68 16"><path fill="#fff" d="M54.055 1.006h-4.318s2.454 4.028 2.482 4.079a.68.68 0 0 1 .016.823L49.737 10h4.319s2.083-3.405 2.367-3.878a1.033 1.033 0 0 0-.011-1.25c-.307-.524-.308-.524-2.357-3.867ZM49.18 1.006h-3.847v13.992h3.846V1.006ZM67.581 3.324a381.01 381.01 0 0 0-1.43-2.318h-9.244l2.02 3.386h4.868l-2.008 3.293 2.238 3.761-2.16 3.551h3.946c.634-1.038 1.583-2.643 1.78-2.972a1.037 1.037 0 0 0-.01-1.256c-.198-.337-1.255-2.013-1.886-3.045l1.897-3.145a1.036 1.036 0 0 0-.011-1.255Z"/><path fill="#fff" d="M58.69 8.14c-.608.993-1.626 2.658-1.816 2.983a.998.998 0 0 0-.011 1.21c.19.317 1.216 1.995 1.827 2.996.611-1 1.637-2.678 1.827-2.996a.998.998 0 0 0-.01-1.21 452.83 452.83 0 0 0-1.817-2.984ZM0 15V1.001h4.593V15H0ZM10.843 3.23 13.485 15H8.457L5.303 1.001h2.82a2.655 2.655 0 0 1 1.764.641c.491.404.829.964.956 1.587ZM14.175 15V1.001h4.593V15h-4.594Zm8.062-8.675a2.779 2.779 0 0 1-2.425-1.39 2.735 2.735 0 0 1-.374-1.41 2.685 2.685 0 0 1 .375-1.4 2.813 2.813 0 0 1 3.824-1.005c.415.244.761.59 1.005 1.005.251.424.38.908.375 1.4.005.495-.125.982-.375 1.41a2.8 2.8 0 0 1-1.005 1.015c-.424.251-.908.38-1.4.375ZM25.727 15V1.001h4.594V15h-4.594Zm10.41-6.349c.012.014.11.175.295.483.184.309.424.703.72 1.183a373.133 373.133 0 0 1 1.862 3.056c.289.48.617 1.023.986 1.627h-5.047c-.315-.513-.601-.976-.858-1.39-.256-.414-.528-.86-.817-1.34-.29-.48-.576-.947-.858-1.4a71.236 71.236 0 0 1-.73-1.193 20.74 20.74 0 0 0-.424-.69A2.041 2.041 0 0 1 30.932 8c.02-.338.128-.665.315-.947.079-.131.223-.365.433-.7a212.331 212.331 0 0 0 1.598-2.603l.817-1.35.858-1.4H40l-3.904 6.368c-.12.19-.189.407-.197.632.013.235.095.461.236.65h.001Z"/></svg>
